src/assets/images/brands/hooky_large.svg

<svg height="674" viewBox="0 0 1652 674" width="1652" xmlns="http://www.w3.org/2000/svg"><g fill="#e1eae2"><path d="m1652 444.720001c-2.75-.579986-1.910034 1.410004-2.459961 2.98999-8.01001 23.220002-68.550049 70.790009-90.22998 85.820038-5.100098 3.539917-10.900025 5.829956-16.230103 9.77002-47.829956 35.389892-57.519897 136.389892-131.619995 130.449951-17.359985-1.390015-39.26001-21.120056-41.349976-38.650024-6.949951-58.069947 47.630005-87.400025 91.609986-108.160035 6.840088-3.22998 25.090088-6.389892 20.520019-16.97995-4.540039-10.5-23.369995 1.910035-29.939941 4.550019-17.150025 6.880005-42.040039 5.890014-58.170044-3.440003-12.449951-7.200012-19.51001-19.830017-25.699951-32.330017-1.800049-.389984-26.290039 17.820008-30.540039 20.360016-32.26001 19.279999-82.800049 34.589935-106.320069-5.470001-16.21997-27.630005-5.269897-56.019989 2.360108-83.480011 3.380005-12.169983 12.159912-38.029999 8.609985-49.5-2.940063-9.519989-21.200073-9.690003-28.800049-6.690003-9.410034 3.720002-16.099975 26.690003-19.059936 35.940003-10.580078 33.040008-17.369995 68.160004-27.970093 101.029999-3.079956 9.550018-6.659912 22.029968-15.380005 27.620056-12.049927 7.72998-23.959961 2.699951-31.809936-7.890045-2-2.700013-1.27002-7.110016-6.050049-7.059998-14.01001 7.130005-29.03003 14.889984-45 16.089935-6.640015.5-16.209961.420044-22.859986-.119995-11.839965-.959961-26.47998-7.72995-37.130005-7.949951-9.029968-.190002-27.109985 6.229981-38.010009 7.060059-7.229981.549926-25.139954 1.009887-31.759949-.210083-11.170044-2.059937-33.540039-18.139984-41.240051-26.75998-3.009949-3.369995-7.619995-13.769989-12.469971-11.509979-25.929993 25.629975-59.130005 43.210022-96.51001 39.489929-12.070007-1.199951-28.279968-8.059936-39.01001-7.989929-9.380004.069977-25.829956 6.179993-37.010009 6.980042-23.029969 1.649902-35.759949.669922-55.179993-11.790039-79.799988-51.190003-34.880005-188.340027 18.670044-244.720002 41.009949-43.180023 110.529968-66.710022 154.029968-12.980011 37.799988 46.700013 26.309998 119.739991 1.729981 169.739991-7.849976 15.960022-19.419983 29.720001-27.539978 45.510009-2.02002 10.019989 11.020019 6.440003 16.530029 4.480011 19.880005-7.050018 35.329956-30.529998 51.75-43.25l1.630005-43.370025c10.429993-50.119995 36.23999-103.720001 76.97998-136.019989 58.029969-46.01001 132.379944-36.640015 155.409973 39.420013 15.930054 52.609986-2.630004 112.329987-30.669921 157.329987-3.970093 6.369995-24.77002 28.350006-6.360108 27.670013 19.51001-.720001 39.27002-24.75 52.52002-37.51001 3.72998-3.589996 12.580078-9.160003 14.440063-13.559997 25.609986-89.51001 48.369995-179.550018 75.319946-268.679993 1.77002-5.840027 2.849976-14.320007 4.920044-20.080017 5.549927-15.400024 13.199952-20.190002 29.859986-18.200012 9.23999 1.109985 18.140014 14.700012 18.540039 23.520019l-36.830078 134.26001c-1.53003 9.5 5.140014 15.709992 14.22998 16.279999 25.300049 1.589996 62.390015-21.850006 78.51001-40.560028 6.050049-7.019989 15.410034-24.470001 23.97998-27.019989 10.550049-3.130005 24.51001 2.220001 28.100098 12.98999 3.069946 9.240021-2.97998 19.470001-7.810059 27.290009-8.839965 14.309997-22.130004 27.369995-35.349975 37.649994-7.660034 5.960022-35.560059 21.950012-37.680054 29.320007-2.789917 9.690002 2.98999 17.210022 3.77002 25.800018 3.420044 37.690003-17.409912 65.549988-19.969971 99-.469971 6.169983-2.069946 17.559998 5.439941 18.539978 29.560059 3.860016 63.130005-29.470001 85.050049-46.059997 1.380005-5.339997-.130005-11.039978.589966-16.410004 4.23999-31.629974 21.180054-74.269989 32.619995-104.379974 7.950073-20.940003 17.119995-47.680024 27.880005-67.120026 6.980103-12.600006 17.390015-21.899994 32.290039-13.470001 22.26001 12.600006.579956 48.140014-5.579956 65.180023-15.170044 41.97998-35.530029 98.190002-41.25 141.75-1.590088 12.079987-2.380005 30.470001 5.429932 40.470001 9.119995 11.679993 29.300049-.820007 37.98999-8.050018 65.100098-54.139984 77.220093-113.970001 105.030029-188.970001 4.570069-12.339997 9.849976-32.869995 16.300049-43.700013 9.079956-15.269989 37.75-11.069976 39.219971 7.210022 1.069946 13.359986-8.02002 33.309998-12.070069 45.940003-15.269897 47.540008-30.579956 95.549988-45.509887 143.48999l-11.240113 44.330017c5.360108 14.039978 19.53003 1.419983 26.810059-4.75 11.439941-9.690002 21.829956-22.120025 32.969971-32.029999 3.390014-3.010009 12.099975-10.820007 15.820068-12.180023 7.579956-2.789978 19.579956-.959991 24.209961 6.190003 1.589966 2.460022.920044 6.720001 3.98999 6.510009v11zm-890.23999-180.75c-45.880005 5.51001-84 65.380005-94.5 106.519989-7.299988 28.600006-10.77002 89.870026 24.929992 101.540009 7.109986 2.330017 21.289978 1.73999 23.559998-7.049988 2.090027-8.119995-6.98999-32.950012-7.789978-43.720001-3.179993-43.25 9.509949-105.070008 44.029968-134.050019 8.040039-6.75 17.910034-9.679992 24.929993-17.130004-2.019959-5.399994-10.179993-6.709992-15.159973-6.109986zm256.98999-.019989c-23.73999 3.279999-47.369995 24.109986-61.719971 42.299988-20.810058 26.369995-32.930053 58.890015-36.780029 92.230011-.369995 3.199982-1.119995 7.970001-1.320007 10.75-.969971 13.209991 6.869995 41.119995 15.559997 51.5 9.729981 11.619995 32.28003 20.789978 39.48999 2.389984-.949951-13.970001-6.919982-28.139984-7.95996-41.919983-3.390015-44.830017 10.22998-110.430023 49.070007-137.900024 3-2.119995 18.809997-10.319977 19.429993-11.579987 3.329956-6.720001-11.29004-8.399994-15.77002-7.779999zm-223.969971 49c-20.980041 5.009979-34.25 42.669983-37.510009 61.539978-1.860047 10.820008-2.989991 24.860016-2.320008 35.77002 1.869995 30.279999 10.679993 27.910003 24.859986 5.769989 14.539978-22.700012 30.619995-65.880005 26.130004-92.76001-.72998-4.379974-6.200012-11.509979-11.169982-10.319977zm258.969971-.059997c-7.400024.949981-16.140015 9.659973-20.579956 15.48999-15.360046 20.199982-27.800049 78.419983-16.380066 101.040008 5.740051 11.359986 17.309998-7.660003 20.630066-12.790008 14.789917-22.860016 29.519897-63.019989 26.579956-90.429993-.530029-4.940002-4.26001-14.080017-10.26001-13.309997zm392.98999 275.030029c-5.76001 1.159912-19.890014 14.709961-23.150024 19.880005-2.309937 3.649902-10.51001 21.669922-.299927 18.769897 2.189941-.619995 20.199951-21.179931 22.529907-24.539917 2.670044-3.840088 11.540039-16.23999.920044-14.109985z"/><path d="m0 451.720001c5.25-.579986 2.86-5.850006 3.13-8.369995 8.11-77.290008 72.249997-175.059997 154.509999-185.48999 82.550003-10.470032 100.539994 68.779999 79.690003 132.689972-10.779999 33.060028-49.279999 98.060028-76.410004 119.590027-11.740005 9.309936-31.559997 15.22998-42.439995 1.610016-15.690002-19.650025 11.480004-38.550019 23.040001-52.010041 26.669998-31.079986 63.64-92.149994 54.39-134.419983-7.630005-34.850006-50.650009-17.040008-69.810006-4.010009-62.619998 42.580017-96.719999 134.390014-60.269996 204.090026 28.150001 53.829956 83.740005 51.27002 130.099991 21.729981 48.240005-30.729981 83.790008-90.170014 105.580017-141.420014 6.519989-15.339996 20.459991-48.259979 22.419983-63.579986 3.149994-24.589996-14.649994-16.769989-29.139984-22.690003-14.809998-6.049987-19.080018-29.070007-7.27002-39.720001 9.610016-8.660003 30.660004-4.359985 42.75-6.25 15.830017-2.470001 21.779999-15.200012 27.230011-28.770019 14.339996-35.739991 24.549988-74.169983 39-109.99997 7.51001-18.630005 17.589996-36.619995 25.01001-54.98999 2.309997-5.730042 7.779999-15.220032.25-18.230042-51.350006.350037-104.980011-3.059997-156.290009-.809997-38.61 1.700012-81.169998 17.220032-98.220001 54.780029-5.899994 13-6.800003 40.029968-.089996 52.609986 13.129989 24.609985 46.369995 38.079986 73.330001 35.630004 12.87999-1.170013 22.740006-11.640014 37.199997-6.170013 17.940003 6.790009 14.929993 28.619995 1.25 38.619995-7.320007 5.350006-24.510009 10.5-33.540008 11.460022-97.329987 10.309998-168.709992-82.050018-112.809998-168.810028 29.830002-46.269958 80.480011-65.070007 133.860016-67.119995 62.899994-2.409973 126.399994 3.98999 189.039978-3.959961 15.190003-1.929993 43.240021-11.340027 56.75-6.730042 15.340027 5.239991 16.76001 26.179993 4.700012 36.170044-4.440002 3.669983-10.070007 4.709961-14.440002 7.559998-26.390015 17.169983-57.649994 100.429993-69.160004 130.839966-9.779998 25.820007-33.570007 82.060028-34.359985 107.630005-.51001 16.520019 6.649994 22.640014 18.019989 33.059997 29.600006 27.100006 47.529999 44.170014 68.410004 79.589997 4.589996 7.790008 16.380005 42.300018 26.309997 19.100006 13.480011-31.479981 18.970001-71.959992 31.560028-104.440003 21.949951-62.269989 42.25-126.209991 71.329956-185.669983 23.049988-47.130005 70.100037-119.280029 127.920044-124.080017 11.279969-.940002 18.849976-1.039978 27.809998 6.160034 9.409973 7.559998 11.789978 16.119996 5.059997 26.719971-7.240051 11.380005-15.770019 7.190003-26.809997 9.190003-39.030029 7.080017-69.120056 62.030029-85.820007 94.179992-28.5 54.890015-48.369996 112.309998-67.700013 170.300019-27.150024 81.459991-51.330017 165.75-73.780029 249.220001-3.279968 12.209961-6.599976 35.869995-13.279968 45.71997-6.890015 10.170044-21.76001 11.950074-31.940003 5.920044-18.010009-10.670044-6.330017-39.570068-5.089996-55.940063 4.579987-60.109955-16.460022-128.209961-57.470001-172.49997-8.970001-9.690002-28.740021-31.449981-42.050019-18.019989-7.049987 7.109986-10.169982 23.609986-13.970001 33.029999-43.019989 106.75-111.48999 230.599945-245.979988 219.98996-57.200001-4.52002-100.850002-70.98999-107.390002-123.609955-.68-5.440002.25-10.130005-1.09-15.959991-.58-2.550019.95-2.75-3.03-2.420014z"/></g></svg>

<?xml version="1.0" encoding="UTF-8"?>
<!-- Generated by Pixelmator Pro 3.6.17 -->
<svg width="1652" height="674" viewBox="0 0 1652 674" xmlns="http://www.w3.org/2000/svg">
    <path id="Path" fill="#e1eae2" stroke="none" d="M 1652 444.720001 C 1649.25 444.140015 1650.089966 446.130005 1649.540039 447.709991 C 1641.530029 470.929993 1580.98999 518.5 1559.310059 533.530029 C 1554.209961 537.069946 1548.410034 539.359985 1543.079956 543.300049 C 1495.25 578.689941 1485.560059 679.689941 1411.459961 673.75 C 1394.099976 672.359985 1372.199951 652.629944 1370.109985 635.099976 C 1363.160034 577.030029 1417.73999 547.699951 1461.719971 526.939941 C 1468.560059 523.709961 1486.810059 520.550049 1482.23999 509.959991 C 1477.699951 499.459991 1458.869995 511.870026 1452.300049 514.51001 C 1435.150024 521.390015 1410.26001 520.400024 1394.130005 511.070007 C 1381.680054 503.869995 1374.619995 491.23999 1368.430054 478.73999 C 1366.630005 478.350006 1342.140015 496.559998 1337.890015 499.100006 C 1305.630005 518.380005 1255.089966 533.689941 1231.569946 493.630005 C 1215.349976 466 1226.300049 437.610016 1233.930054 410.149994 C 1237.310059 397.980011 1246.089966 372.119995 1242.540039 360.649994 C 1239.599976 351.130005 1221.339966 350.959991 1213.73999 353.959991 C 1204.329956 357.679993 1197.640015 380.649994 1194.680054 389.899994 C 1184.099976 422.940002 1177.310059 458.059998 1166.709961 490.929993 C 1163.630005 500.480011 1160.050049 512.959961 1151.329956 518.550049 C 1139.280029 526.280029 1127.369995 521.25 1119.52002 510.660004 C 1117.52002 507.959991 1118.25 503.549988 1113.469971 503.600006 C 1099.459961 510.730011 1084.439941 518.48999 1068.469971 519.689941 C 1061.829956 520.189941 1052.26001 520.109985 1045.609985 519.569946 C 1033.77002 518.609985 1019.130005 511.839996 1008.47998 511.619995 C 999.450012 511.429993 981.369995 517.849976 970.469971 518.680054 C 963.23999 519.22998 945.330017 519.689941 938.710022 518.469971 C 927.539978 516.410034 905.169983 500.329987 897.469971 491.709991 C 894.460022 488.339996 889.849976 477.940002 885 480.200012 C 859.070007 505.829987 825.869995 523.410034 788.48999 519.689941 C 776.419983 518.48999 760.210022 511.630005 749.47998 511.700012 C 740.099976 511.769989 723.650024 517.880005 712.469971 518.680054 C 689.440002 520.329956 676.710022 519.349976 657.289978 506.890015 C 577.48999 455.700012 622.409973 318.549988 675.960022 262.170013 C 716.969971 218.98999 786.48999 195.459991 829.98999 249.190002 C 867.789978 295.890015 856.299988 368.929993 831.719971 418.929993 C 823.869995 434.890015 812.299988 448.649994 804.179993 464.440002 C 802.159973 474.459991 815.200012 470.880005 820.710022 468.920013 C 840.590027 461.869995 856.039978 438.390015 872.460022 425.670013 L 874.090027 382.299988 C 884.52002 332.179993 910.330017 278.579987 951.070007 246.279999 C 1009.099976 200.269989 1083.449951 209.639984 1106.47998 285.700012 C 1122.410034 338.309998 1103.849976 398.029999 1075.810059 443.029999 C 1071.839966 449.399994 1051.040039 471.380005 1069.449951 470.700012 C 1088.959961 469.980011 1108.719971 445.950012 1121.969971 433.190002 C 1125.699951 429.600006 1134.550049 424.029999 1136.410034 419.630005 C 1162.02002 330.119995 1184.780029 240.079987 1211.72998 150.950012 C 1213.5 145.109985 1214.579956 136.630005 1216.650024 130.869995 C 1222.199951 115.469971 1229.849976 110.679993 1246.51001 112.669983 C 1255.75 113.779968 1264.650024 127.369995 1265.050049 136.190002 L 1228.219971 270.450012 C 1226.689941 279.950012 1233.359985 286.160004 1242.449951 286.730011 C 1267.75 288.320007 1304.839966 264.880005 1320.959961 246.169983 C 1327.01001 239.149994 1336.369995 221.699982 1344.939941 219.149994 C 1355.48999 216.019989 1369.449951 221.369995 1373.040039 232.139984 C 1376.109985 241.380005 1370.060059 251.609985 1365.22998 259.429993 C 1356.390015 273.73999 1343.099976 286.799988 1329.880005 297.079987 C 1322.219971 303.040009 1294.319946 319.029999 1292.199951 326.399994 C 1289.410034 336.089996 1295.189941 343.610016 1295.969971 352.200012 C 1299.390015 389.890015 1278.560059 417.75 1276 451.200012 C 1275.530029 457.369995 1273.930054 468.76001 1281.439941 469.73999 C 1311 473.600006 1344.569946 440.269989 1366.48999 423.679993 C 1367.869995 418.339996 1366.359985 412.640015 1367.079956 407.269989 C 1371.319946 375.640015 1388.26001 333 1399.699951 302.890015 C 1407.650024 281.950012 1416.819946 255.209991 1427.579956 235.769989 C 1434.560059 223.169983 1444.969971 213.869995 1459.869995 222.299988 C 1482.130005 234.899994 1460.449951 270.440002 1454.290039 287.480011 C 1439.119995 329.459991 1418.76001 385.670013 1413.040039 429.230011 C 1411.449951 441.309998 1410.660034 459.700012 1418.469971 469.700012 C 1427.589966 481.380005 1447.77002 468.880005 1456.459961 461.649994 C 1521.560059 407.51001 1533.680054 347.679993 1561.48999 272.679993 C 1566.060059 260.339996 1571.339966 239.809998 1577.790039 228.97998 C 1586.869995 213.709991 1615.540039 217.910004 1617.01001 236.190002 C 1618.079956 249.549988 1608.98999 269.5 1604.939941 282.130005 C 1589.670044 329.670013 1574.359985 377.679993 1559.430054 425.619995 L 1548.189941 469.950012 C 1553.550049 483.98999 1567.719971 471.369995 1575 465.200012 C 1586.439941 455.51001 1596.829956 443.079987 1607.969971 433.170013 C 1611.359985 430.160004 1620.069946 422.350006 1623.790039 420.98999 C 1631.369995 418.200012 1643.369995 420.029999 1648 427.179993 C 1649.589966 429.640015 1648.920044 433.899994 1651.98999 433.690002 L 1651.98999 444.690002 Z M 761.76001 263.970001 C 715.880005 269.480011 677.76001 329.350006 667.26001 370.48999 C 659.960022 399.089996 656.48999 460.360016 692.190002 472.029999 C 699.299988 474.360016 713.47998 473.769989 715.75 464.980011 C 717.840027 456.860016 708.76001 432.029999 707.960022 421.26001 C 704.780029 378.01001 717.469971 316.190002 751.98999 287.209991 C 760.030029 280.459991 769.900024 277.529999 776.919983 270.079987 C 774.900024 264.679993 766.73999 263.369995 761.76001 263.970001 Z M 1018.75 263.950012 C 995.01001 267.230011 971.380005 288.059998 957.030029 306.25 C 936.219971 332.619995 924.099976 365.140015 920.25 398.480011 C 919.880005 401.679993 919.130005 406.450012 918.929993 409.230011 C 917.960022 422.440002 925.799988 450.350006 934.48999 460.730011 C 944.219971 472.350006 966.77002 481.519989 973.97998 463.119995 C 973.030029 449.149994 967.059998 434.980011 966.02002 421.200012 C 962.630005 376.369995 976.25 310.769989 1015.090027 283.299988 C 1018.090027 281.179993 1033.900024 272.980011 1034.52002 271.720001 C 1037.849976 265 1023.22998 263.320007 1018.75 263.940002 Z M 794.780029 312.950012 C 773.799988 317.959991 760.530029 355.619995 757.27002 374.48999 C 755.409973 385.309998 754.280029 399.350006 754.950012 410.26001 C 756.820007 440.540009 765.630005 438.170013 779.809998 416.029999 C 794.349976 393.329987 810.429993 350.149994 805.940002 323.269989 C 805.210022 318.890015 799.73999 311.76001 794.77002 312.950012 Z M 1053.75 312.890015 C 1046.349976 313.839996 1037.609985 322.549988 1033.170044 328.380005 C 1017.809998 348.579987 1005.369995 406.799988 1016.789978 429.420013 C 1022.530029 440.779999 1034.099976 421.76001 1037.420044 416.630005 C 1052.209961 393.769989 1066.939941 353.610016 1064 326.200012 C 1063.469971 321.26001 1059.73999 312.119995 1053.73999 312.890015 Z M 1446.73999 587.920044 C 1440.97998 589.079956 1426.849976 602.630005 1423.589966 607.800049 C 1421.280029 611.449951 1413.079956 629.469971 1423.290039 626.569946 C 1425.47998 625.949951 1443.48999 605.390015 1445.819946 602.030029 C 1448.48999 598.189941 1457.359985 585.790039 1446.73999 587.920044 Z"/>
    <path id="path1" fill="#e1eae2" stroke="none" d="M 0 451.720001 C 5.25 451.140015 2.86 445.869995 3.13 443.350006 C 11.24 366.059998 75.379997 268.290009 157.639999 257.860016 C 240.190002 247.389984 258.179993 326.640015 237.330002 390.549988 C 226.550003 423.610016 188.050003 488.610016 160.919998 510.140015 C 149.179993 519.449951 129.360001 525.369995 118.480003 511.750031 C 102.790001 492.100006 129.960007 473.200012 141.520004 459.73999 C 168.190002 428.660004 205.160004 367.589996 195.910004 325.320007 C 188.279999 290.470001 145.259995 308.279999 126.099998 321.309998 C 63.48 363.890015 29.379999 455.700012 65.830002 525.400024 C 93.980003 579.22998 149.570007 576.670044 195.929993 547.130005 C 244.169998 516.400024 279.720001 456.959991 301.51001 405.709991 C 308.029999 390.369995 321.970001 357.450012 323.929993 342.130005 C 327.079987 317.540009 309.279999 325.360016 294.790009 319.440002 C 279.980011 313.390015 275.709991 290.369995 287.519989 279.720001 C 297.130005 271.059998 318.179993 275.360016 330.269989 273.470001 C 346.100006 271 352.049988 258.269989 357.5 244.699982 C 371.839996 208.959991 382.049988 170.529999 396.5 134.700012 C 404.01001 116.070007 414.089996 98.080017 421.51001 79.710022 C 423.820007 73.97998 429.290009 64.48999 421.76001 61.47998 C 370.410004 61.830017 316.779999 58.419983 265.470001 60.669983 C 226.860001 62.369995 184.300003 77.890015 167.25 115.450012 C 161.350006 128.450012 160.449997 155.47998 167.160004 168.059998 C 180.289993 192.669983 213.529999 206.139984 240.490005 203.690002 C 253.369995 202.519989 263.230011 192.049988 277.690002 197.519989 C 295.630005 204.309998 292.619995 226.139984 278.940002 236.139984 C 271.619995 241.48999 254.429993 246.639984 245.399994 247.600006 C 148.070007 257.910004 76.690002 165.549988 132.589996 78.789978 C 162.419998 32.52002 213.070007 13.719971 266.450012 11.669983 C 329.350006 9.26001 392.850006 15.659973 455.48999 7.710022 C 470.679993 5.780029 498.730011 -3.630005 512.23999 0.97998 C 527.580017 6.219971 529 27.159973 516.940002 37.150024 C 512.5 40.820007 506.869995 41.859985 502.5 44.710022 C 476.109985 61.880005 444.850006 145.140015 433.339996 175.549988 C 423.559998 201.369995 399.769989 257.610016 398.980011 283.179993 C 398.470001 299.700012 405.630005 305.820007 417 316.23999 C 446.600006 343.339996 464.529999 360.410004 485.410004 395.829987 C 490 403.619995 501.790009 438.130005 511.720001 414.929993 C 525.200012 383.450012 530.690002 342.970001 543.280029 310.48999 C 565.22998 248.220001 585.530029 184.279999 614.609985 124.820007 C 637.659973 77.690002 684.710022 5.539978 742.530029 0.73999 C 753.809998 -0.200012 761.380005 -0.299988 770.340027 6.900024 C 779.75 14.460022 782.130005 23.02002 775.400024 33.619995 C 768.159973 45 759.630005 40.809998 748.590027 42.809998 C 709.559998 49.890015 679.469971 104.840027 662.77002 136.98999 C 634.27002 191.880005 614.400024 249.299988 595.070007 307.290009 C 567.919983 388.75 543.73999 473.040009 521.289978 556.51001 C 518.01001 568.719971 514.690002 592.380005 508.01001 602.22998 C 501.119995 612.400024 486.25 614.180054 476.070007 608.150024 C 458.059998 597.47998 469.73999 568.579956 470.980011 552.209961 C 475.559998 492.100006 454.519989 424 413.51001 379.709991 C 404.540009 370.019989 384.769989 348.26001 371.459991 361.690002 C 364.410004 368.799988 361.290009 385.299988 357.48999 394.720001 C 314.470001 501.470001 246 625.319946 111.510002 614.709961 C 54.310001 610.189941 10.66 543.719971 4.12 491.100006 C 3.44 485.660004 4.37 480.970001 3.03 475.140015 C 2.45 472.589996 3.98 472.390015 0 472.720001 L 0 451.720001 Z"/>
</svg>
